X:1
T:moonlight sonata violin
T:Moonlight sonata for violin and piano
T:Ludwig van Beethoven (arr. Charley Shi)
C:Ludwig van Beethoven (arr. Charley Shi)
%%score ( 1 2 ) { ( 3 5 ) | ( 4 6 ) }
L:1/8
Q:1/4=42
M:4/4
K:E
V:1 alto2 nm="Violin" snm="Vln."
V:2 alto2 
V:3 bass nm="Piano" snm="Pno."
V:5 bass 
V:4 bass 
V:6 bass 
V:1
"^Adagio sostenuto""^Important note: For this piece, the violin is to be tuned a semi-tone lower." z8 | %1
 z8 | z8 | z8 | z6!pp! G>G | G6 G>G | G4 A4 | G4 F2 B2 | E2 z2 z4 | z6 =G>G | =G6 G>G | =G6 F2 | %12
 F4 =G2 E2 | F4 F4 | B,2 z2 z2 B2 | =c6 ^A2 | B6 B2 | =c6 ^A2 | B4 B4 | B4 A4 | =G4 F4 | C4 C2 C2 | %22
 F,2 z2 z2 c>c | c6 c>c | c4 ^B2 c2 | d6 d2 | e4 d2 c2 | ^B2 G2 A2 F2 | z2"^pizz." G,2 A,2 F,2 | %29
 z2"^arco" c2 e2 c2 | z2"^pizz." C2 E2 C2 | ^B,2 z2 z4 | C2 z2 z4 | E2 z2 z4 | F2 z2 z4 | %35
 F,2 A,2 ^B,2 D2 | ^B,2 D2 F2 A2 | F,4 F,2 F,2 | F,4 F,2 F,2 | F,4 C2 C2 | D2 D2 ^B,2 B,2 | %41
 C2 z2 z2"^arco" G>G | G6 G>G | G4 A4 | G4 F2 B2 | E2 z2 z2 B>B | B6 B>B | B4 ^B2 c2 | d4 e4 | %49
 =d4 ^B4 | c6 c2 | =d6 ^B2 | c6 c2 | =d6 ^B2 | c4 c4 | B6 B2 | A2 A2 G2 G2 | F4 G2 A2 | G4 G4 | %59
 C2 z2 z2 G,2 | F,4 F2 ^B,2 | C8 | ^B,8 | C8 | A,4 G,4 | C8- | C8 | C4 [Cc]4 | !fermata![Cc]8 |] %69
[K:Db][M:3/4][K:treble]!p![Q:3/4=60]"^Allegretto" d2 | c4 B2 | .e2 z2 .d2 | .c2 z2 .B2 | %73
 .A2 z2 g2 | f4 e2 | .a2 z2 .g2 | .f2 z2 .e2 | .d2 z2 (d2- | d2 c2) (B2- | B2 e2) (d2- | %80
 d2 c2) (B2- | B2 A2) (g2- | g2 f2) (e2- | e2 a2) (g2- | g2 f2) (e2- | e2 d2) |: d2 | d4 d2 | %88
 (d2 c2) _c2 | _c4 c2 | (_c2 B2) B2 | c4 d2 | e4 G2- | G2 F2 (BG) | (F2 E2) d2 | c4 B2 | %96
 .e2 z2 d2- | d2 c2 B2- | B2 A2 g2 | f4 e2 | .a2 z2 g2- | g2 f2 e2 | .a2 z2 g2- | g2 f2 b2- | %104
 b2 a2 z2 | C4 (ED) | D2 z2 :| z2 | z6 | z6 | z6 | z6 | z6 | z6 | z6 | z4 F2- | F4 G2- | G4 e2- | %118
 (e2 c2) .A2 | (d2 f2) F2- | F4 G2- | G4 g2- | (g2 b2) .c2 | (e2 d2) z2 | z6 | z6 | z6 | z6 | z6 | %129
 z6 | z6 | z6 | z6 | z6 | z6 | z6 | z6 | z6 | z6 | z4 f2- | f4 B2- | B4 e2- | e4 A2- | A4 d2- | %144
 d4 G2- | G4 (F2- | F2 A2 _c2- | c2 B2) d2- | d4 G2- | G4 F2- | F4 =E2- | E4 F2- | F4 G2- | %153
 G4 (F2- | F2 G2) .C2 | .D2 z2 z2 |"^pizz." z2 A,2 z2 | z2 C2 z2 | z2 E2 z2 | z2 A2 z2 | z2 d2 z2 | %161
 z2 A2 z2 | z2 F2 z2 | z2 D2 d2 | d2 e2 f2 | e2 c2 d2 | z2 A2 B2 | A2 c2 G2 | G4 G2 | A4 G2 | %170
 F4 E2 | D4"^arco" D2 | D4 D2 | D2 E2 E2 | A4 A2 | A2 B2 G2 | A2 E2 F2 | G2 A2 B2 | A2 d2 d2 | %179
 d2 c2 d2 | c4 B2 | .e2 z2 d2- | d2 c2 B2- | B2 A2 g2 | f4 e2 | .a2 z2 g2- | g2 f2 .e2 | %187
 .a2 z2 g2- | g2 f2 b2- | b2 a2 z2 | C4 (ED) | D2 z4 |] %192
[K:E][M:2/2][Q:1/2=66]"^Presto agitato"!p! (C/G/)(e/G/) (C/G/)(e/G/) (C/G/)(e/G/) (C/G/)(e/G/) |: %193
 (C/G/)(e/G/) (C/G/)(e/G/) (C/G/)(e/G/)[CGe][CGe] | %194
 (D/^B/)(g/B/) (D/B/)(g/B/) (D/B/)(g/B/) (D/B/)(g/B/) | %195
 (D/^B/)(g/B/) (D/B/)(g/B/) (D/B/)(g/B/)[DBg][DBg] | %196
 (C/G/)(^e/G/) (C/G/)(e/G/) (C/G/)(e/G/) (C/G/)(e/G/) | %197
 (C/G/)(^e/G/) (C/G/)(e/G/) (C/G/)(e/G/)[CGe][CGe] | %198
 (C/A/)(f/A/) (C/A/)(f/A/) (C/A/)(f/A/)[CAf][CAf] | %199
 (C/A/)(e/A/) (C/A/)(e/A/) (C/A/)(e/A/)[CAe][CAe] |!f! [D^Bd]G/G/ G/G/^A/A/ B/B/c/c/ d/d/B/B/ | %201
 d/d/c/c/ f/f/e/e/ d/d/c/c/ ^B/B/A/A/ | G/G/G/G/ G/G/^A/A/ ^B/B/c/c/ d/d/B/B/ | %203
 d/d/c/c/ f/f/e/e/ d/d/c/c/ ^B/B/A/A/ | G/G/A/A/ G/G/A/A/ G/G/A/A/ G/G/A/A/ | .G2 !fermata!G,6 | %206
!p! (C/G/)(e/G/) (C/G/)(e/G/) (C/G/)(e/G/) (C/G/)(e/G/) | %207
 (C/G/)(e/G/) (C/G/)(e/G/) (C/G/)(e/G/)[CGe][CGe] | %208
 (C/^A/)(^^f/A/) (C/A/)(f/A/) (C/A/)(f/A/) (C/A/)(f/A/) | %209
 (C/^A/)(^^f/A/) (C/A/)(f/A/) (C/A/)(f/A/)[CAf][CAf] | %210
 (C/^A/)(d/A/) (C/A/)(d/A/) (C/A/)(d/A/) (C/A/)(d/A/) | %211
 (C/^A/)(d/A/) (C/A/)(d/A/) (C/A/)(d/A/) (C/A/)(d/A/) |!p! G2 G4 D>B, | %213
{^A,B,C} B,2 A,2- A,A,^^F>A, | C2 B,2- B,B,G>B, | =D2 C2- CC^^F>C | .D g2 g- g.g.d.B | %217
 .B ^A2 A- A.A.^^f.A | .c B2 B- B.B.g.B | .=d c2 c- c.c.^^f.c | ^b4 c'4 | T^a2{ga} b6 | g4 a4 | %223
 T^^f2{^ef} g6 |!ff! a4- a/!p!e/f/g/ a/b/c'/b/ | a/e/f/g/ a/b/c'/b/ a/e/f/g/ a/b/c'/b/ | %226
!<(! a/e/f/g/ a/b/c'/=d'/ e'/^d'/e'/d'/ e'/c'/b/a/!<)! |!p! g4 !trill(!T^a4{ga} | %228
 .g2!ff! A2- A2 z2 |!p! [CA]2 z2 [CA]2 z2 |!<(! [CA]2 [CA]2 [CA]2 [CA]2!<)! | [CA]2 z2 z4 | %232
!f! A,4 G,4 | B,4 ^A,4 | G,2 z2 z4 | z8 | z8 | z8 | z8 | z8 | z!p! B!<(!BB BB^AG!<)! | %241
 ^^F!f!eee eedc | B!p!b!<(!bb bb^ag!<)! | ^^f!f!e'e'e' e'e'd'c' | b!p!.b(bd') z c'(c'e') | %245
 z .b(bd') z .^a(ad') | z!<(! .b(bd') z .a(ac')!<)! | z .g(g!>(!b) z .^^f(f^a)!>)! |!p! [Gg]8 | %249
 [G^a]8 | [Gb]8 | [G^a]8 | [Gg]2{Gd} b2 z2{Cc} ^a2 | z2{Gd} b2 z2{Cc} ^a2 | %254
"_cresc." [Gb]2 [Gb]2 [Gb]2 [Gb]2 | [G^b]2 [Gb]2 F,!<(!G,^A,^B,!<)! |1 %256
 (C/G/)(e/G/) (C/G/)(e/G/) (C/G/)(e/G/) (C/G/)(e/G/) :|2 %257
 (C/G/)(^e/G/) (C/G/)(e/G/) (C/G/)(e/G/) (C/G/)(e/G/) || %258
 (C/G/)(^e/G/) (C/G/)(e/G/) (C/G/)(e/G/)[CGe][CGe] | %259
 (C/B/)(^e/B/) (C/B/)(e/B/) (C/B/)(e/B/) (C/B/)(e/B/) | %260
 (C/B/)(^e/B/) (C/B/)(e/B/) (C/B/)(e/B/)[CBe][CBe] | %261
 (C/A/)(f/A/) (C/A/)(f/A/) (C/A/)(f/A/)[CAf][CAf] | %262
 (C/G/)(b/G/) (C/G/)(b/G/) (C/G/)(b/G/)[CG^e][CGe] | .[F,CAf]2!p! c4 A>F |{^EFG} F2 ^E2- EEc>E | %265
 G2 F2- FFc>F | A2 G2- GGc>G |[K:alto] A/C/F,/C/ F,/C/A,/C/ F,/C/A,/C/ F,/C/A,/C/ | %268
 G,/C/B,/C/ G,/C/B,/C/ G,/C/B,/C/ G,/C/B,/C/ | F,/C/A,/C/ F,/C/A,/C/ F,/C/A,/C/ F,/C/A,/C/ | %270
!<(! F,/=D/A,/D/ F,/D/A,/D/ A,/D/=C/D/ A,/D/C/D/!<)! | %271
 =G,/=D/B,/D/ G,/D/B,/D/ G,/D/B,/D/ G,/D/B,/D/ | A,/=D/=C/D/ A,/D/C/D/ A,/D/C/D/ A,/D/C/D/ | %273
 =G,/=D/B,/D/ G,/D/B,/D/ G,/D/B,/D/ G,/D/B,/D/ | ^G,/=D/B,/D/ G,/D/B,/D/ G,/D/B,/D/ G,/D/B,/D/ | %275
 F,/C/A,/C/ F,/C/A,/C/ F,/F/A,/F/ F,/F/A,/F/ | F,/F/^D/F/ F,/F/D/F/ F,/F/D/F/ F,/F/D/F/ | %277
[K:treble] C/(e/c/e/) E/(e/c/e/) E/(e/c/e/) E/(e/c/e/) | %278
 D/(d/c/d/) D/(d/c/d/) D/(d/c/d/) D/(d/c/d/) | .d2 g4 (ag) | f2 (gf) e2 (fe) | d2 (ed) c2 (dc) | %282
 ^B4 c4 | .d2 G2-"_cresc." G.G.A.G | .F.F.G.F .E.E.F.E |[K:alto] .D.D.E.D .C.C.D.C | %286
!p!!<(! ^B,4 C4!<)! |!>(!{F,-} [F,D]6 C2!>)! |!<(! .^B,2 .B,2 .C2 .C2!<)! | %289
!>(!{F,-} [F,D]6 C2!>)! |!<(! ^B,2 B,2 C2 C2!<)! | D2 D2!>(! C2 C2!>)! |!p! [F,A]8 |!pp! [^B,G]8 | %294
[K:treble]!p! (C/G/)(e/G/) (C/G/)(e/G/) (C/G/)(e/G/) (C/G/)(e/G/) | %295
 (C/G/)(e/G/) (C/G/)(e/G/) (C/G/)(e/G/)[CGe][CGe] | %296
 (D/^B/)(g/B/) (D/B/)(g/B/) (D/B/)(g/B/) (D/B/)(g/B/) | %297
 (D/^B/)(g/B/) (D/B/)(g/B/) (D/B/)(g/B/)[DBg][DBg] | %298
 (C/G/)(^e/G/) (C/G/)(e/G/) (C/G/)(e/G/) (C/G/)(e/G/) | %299
 (C/G/)(^e/G/) (C/G/)(e/G/) (C/G/)(e/G/)[CGe][CGe] | %300
 (C/A/)(f/A/) (C/A/)(f/A/) (C/A/)(f/A/)[CAf][CAf] | %301
 (C/A/)(e/A/) (C/A/)(e/A/) (C/A/)(e/A/)[CAe][CAe] |!f! [D^Bd]G/G/ G/G/^A/A/ B/B/c/c/ d/d/B/B/ | %303
 d/d/c/c/ f/f/e/e/ d/d/c/c/ ^B/B/A/A/ | G/G/G/G/ G/G/^A/A/ ^B/B/c/c/ d/d/B/B/ | %305
 d/d/c/c/ f/f/e/e/ d/d/c/c/ ^B/B/A/A/ | G/G/A/A/ G/G/A/A/ G/G/A/A/ G/G/A/A/ | .G2 !fermata!G,6 | %308
 z2!p! G4 E>C |{^B,CD} C2 B,2- B,B,G>B, | D2 C2- CCG>C | E2 D2- DDG>D | .E g2 g- g.g.e.c | %313
 .c ^B2 B- B.B.g.B | .d c2 c- c.c.g.c | .e d2 d- d.d.g.d | ^e4 f4 | Td2{cd} e6 | c4 =d4 | %319
 T^B2{^AB} c6 |!ff! =d4 z4 |[K:alto2] [F=d]2 z2 [F,Fd]2 z2 | %322
!<(! [F,F=d]2 [F,Fd]2 [F,Fd]2 [F,Fd]2!<)! |!p! !//!C4 !//!^B,4 | %324
 C2!ff! =D2- D/!p!A,/B,/C/ =D/E/F/E/ | =D/A,/B,/C/"_cresc." D/E/F/E/ D/A,/B,/C/ D/E/F/E/ | %326
 =D/A,/B,/C/ D/E/F/=G/[K:treble] A/B/c/=d/ e/f/=g/^g/ |!f! a4 c4 | e4 ^B,4 | C2 z2 z4 | z8 | z8 | %332
 z8 | z8 | z8 | z!p! E!<(!EE EEDC!<)! | ^B,!f!^BBB BBcd | e!p!e!<(!ee eedc!<)! | ^B!f!^bbb bbc'd' | %339
 e'!p!.c'(c'g) z .a(af) | z .g(ge) z .g(gd) | z .g(ge) z .f(f=d) | z .e(ec) z .d(d^B) | %343
[K:alto2]!p! [Cc]8 | [Cd]8 | [Ce]8 | [Cd]8 | [Cc]2{CG} e2 z2{F,F} d2 | z2{CG} e2 z2{F,F} d2 | %349
"_cresc." (C/G/)(e/G/) (C/G/)(e/G/) (C/G/)(e/G/) (C/G/)(e/G/) | %350
 (C/G/)(^e/G/) (C/G/)(e/G/) (C/G/)(e/G/) (C/G/)(e/G/) | [F,CAf]2 !//!F,2 !//!A,2 !//!C2 | %352
 !//!F2 !//!A2 !//!c2 [F,CAf][F,CAf] | [CGe]2 !//!C2 !//!E2 !//!G2 | %354
[K:treble] !//!c2 !//!e2 !//!g2 [Cec'][Cec'] |[K:alto] z2 [^^F,E]2 [F,E]2 [F,E]2 | %356
 !fermata![^^F,E]8 | z2 [F,D]2 [F,D]2 [F,D]2 | !fermata![F,D]8 | %359
!p! C/G/E/G/ C/G/E/G/ C/G/E/G/ C/G/E/G/ | D/G/F/G/ D/G/F/G/ D/G/F/G/ D/G/F/G/ | %361
 C/G/E/G/ C/G/E/G/ C/G/E/G/ C/G/E/G/ | ^B,/G/F/G/ B,/G/F/G/ B,/G/F/G/ B,/G/F/G/ | %363
 [CG]2[K:treble] g4 e>c | c2 ^B2- BBg>B | d2 c2- ccg>c | e2 d2- ddg>d | %367
"_cresc." .f.e.c.G .c.G.^E.C |[K:alto2] .F.C.A,.F, .A,.C.^E.G |!f! [F,A]8- | [F,A]8 | [F,A]8- | %372
 [F,A]8 | [Cc]8- | [Cc]8 | [Ce]8- | [Ce]8 | z8 | z8 | z32 z8 z | z8 | z8 |!p! [Cc]8 | [Cd]8 | %384
 [Ce]8 | [Cd]8 |"_cresc." [Cc]2{CG} e2 z2{F,F} d2 | z2{CG} e2 z2{F,F} d2 | %388
!f! !//!c2 !//!G2 !//!E2 !//!C2 | !//!G,2 !//!C2 !//!E2 !//!G2 | %390
[K:treble] !//!c2 !//!e2 !//!g2 !//!c'2 | [CGe']2 z2!ff! [CGc']2 z2 | !fermata!C8 |] %393
"^2nd version of bars 86-101 of 3rd movement" D/(d/c/d/) D/(d/c/d/) D/(d/c/d/) D/(d/c/d/) | %394
 (d/G/)(G/G,/) (G,/G/G,/G/ G,/G/G,/G/ G,/G/G,/G/) |[K:alto2] (!//-!G,4 G4) | (!//-!G,4 G4) | %397
 (!//-!G,4 G4) | (G,/G/G/g/) (g/G/G/G,/) (G,/G/G/g/) (g/G/G/G,/) | %399
 (G,/G/G/g/) (g/G/G/G,/) (G,/G/G/g/) (g/G/G/G,/) | %400
 (G,/G/G/g/) (g/G/G/G,/) (G,/G/G/g/) (g/G/G/G,/) | %401
 (G,/G/G/g/) (g/G/G/G,/) (G,/G/G/g/) (g/G/G/G,/) | %402
 (G,/G/G/g/) (g/G/G/G,/) (G,/G/G/g/) (g/G/G/G,/) | %403
 (G,/G/G/g/) (g/G/G/G,/) (G,/G/G/g/) (g/G/G/G,/) | %404
 (G,/G/G/g/) (g/G/G/G,/) (G,/G/G/g/) (g/G/G/G,/) | (!//-!G,4 G4) | (!//-!G,2 G2) (!//-!A,2 A2) | %407
 [F,A]8 |!pp! [^B,G]8 || %409
V:2
 x8 | x8 | x8 | x8 | x8 | x8 | x8 | x8 | x8 | x8 | x8 | x8 | x8 | x8 | x8 | x8 | x8 | x8 | x8 | %19
 x8 | x8 | x8 | x8 | x8 | x8 | x8 | x8 | x8 | x8 | x8 | x8 | x8 | x8 | x8 | x8 | x8 | x8 | x8 | %38
 x8 | x8 | x8 | x8 | x8 | x8 | x8 | x8 | x8 | x8 | x8 | x8 | x8 | x8 | x8 | x8 | x8 | x8 | x8 | %57
 x8 | x8 | x8 | x8 | x8 | x8 | x8 | x8 | x8 | x8 | x8 | x8 |][K:Db][M:3/4][K:treble] x2 | x6 | x6 | %72
 x6 | x6 | x6 | x6 | x6 | x6 | x6 | x6 | x6 | x6 | x6 | x6 | x6 | x4 |: x2 | x6 | x6 | x6 | x6 | %91
 x6 | x6 | x6 | x6 | x6 | x6 | x6 | x6 | x6 | x6 | x6 | x6 | x6 | x6 | x6 | x4 :| x2 | x6 | x6 | %110
 x6 | x6 | x6 | x6 | x6 | x6 | x6 | x6 | x6 | x6 | x6 | x6 | x6 | x6 | x6 | x6 | x6 | x6 | x6 | %129
 x6 | x6 | x6 | x6 | x6 | x6 | x6 | x6 | x6 | x6 | x6 | x6 | x6 | x6 | x6 | x6 | x6 | x6 | x6 | %148
 x6 | x6 | x6 | x6 | x6 | x6 | x6 | x6 | x6 | x6 | x6 | x6 | x6 | x6 | x6 | x6 | x6 | x6 | x6 | %167
 x6 | x6 | x6 | x6 | x6 | x6 | x6 | x6 | x6 | x6 | x6 | x6 | x6 | x6 | x6 | x6 | x6 | x6 | x6 | %186
 x6 | x6 | x6 | x6 | x6 | x6 |][K:E][M:2/2] x8 |: x8 | x8 | x8 | x8 | x8 | x8 | x8 | x8 | x8 | x8 | %203
 x8 | x8 | x8 | x8 | x8 | x8 | x8 | x8 | x8 | x8 | x8 | x8 | x8 | x8 | x8 | x8 | x8 | x8 | x8 | %222
 x8 | x8 | x8 | x8 | x8 | x8 | x8 | x8 | x8 | x8 | x8 | x8 | x8 | x8 | x8 | x8 | x8 | x8 | x8 | %241
 x8 | x8 | x8 | x8 | x8 | x8 | x8 | x8 | x8 | x8 | x8 | x8 | x8 | x8 | x8 |1 x8 :|2 x8 || x8 | x8 | %260
 x8 | x8 | x8 | x8 | x8 | x8 | x8 |[K:alto] x8 | x8 | x8 | x8 | x8 | x8 | x8 | x8 | x8 | x8 | %277
[K:treble] x8 | x8 | x8 | x8 | x8 | x8 | x8 | x8 |[K:alto] x8 | x8 | x8 | x8 | x8 | x8 | x8 | x8 | %293
 x8 |[K:treble] x8 | x8 | x8 | x8 | x8 | x8 | x8 | x8 | x8 | x8 | x8 | x8 | x8 | x8 | x8 | x8 | %310
 x8 | x8 | x8 | x8 | x8 | x8 | x8 | x8 | x8 | x8 | x8 |[K:alto2] x8 | x8 | x8 | x8 | x8 | %326
 x4[K:treble] x4 | x8 | x8 | x8 | x8 | x8 | x8 | x8 | x8 | x8 | x8 | z GGG GGGG | GGGG GGGG | %339
 [CG]GG z z C C2 | z C C2 z G G2 | x G G2 z AA z | x C C2 z F F2 |[K:alto2] x8 | x8 | x8 | x8 | %347
 x8 | x8 | x8 | x8 | x8 | x8 | x8 |[K:treble] x8 |[K:alto] x8 | x8 | x8 | x8 | x8 | x8 | x8 | x8 | %363
 x2[K:treble] x6 | x8 | x8 | x8 | x8 |[K:alto2] x8 | x8 | x8 | x8 | x8 | x8 | x8 | x8 | x8 | x8 | %378
 x8 | x41 | x8 | x8 | x8 | x8 | x8 | x8 | x8 | x8 | x8 | x8 |[K:treble] x8 | x8 | x8 |] x8 | x8 | %395
[K:alto2] x8 | x8 | x8 | x8 | x8 | x8 | x8 | x8 | x8 | x8 | x8 | x8 | x8 | x8 || %409
V:3
!pp! (3G,CE (3G,CE (3G,CE (3G,CE | (3G,CE (3G,CE (3G,CE (3G,CE | (3A,CE (3A,CE (3A,=DF (3A,DF | %3
 (3G,^B,F (3G,CE (3G,C^D (3F,B,D | (3E,G,C (3G,CE (3G,CE (3G,CE | (3G,DF (3G,DF (3G,DF (3G,DF | %6
 (3G,CE (3G,CE (3A,CF (3A,CF | (3G,B,E (3G,B,E (3A,B,D (3A,B,D | (3G,B,E (3G,B,E (3G,B,E (3G,B,E | %9
 (3=G,B,E (3G,B,E (3G,B,E (3G,B,E | (3=G,B,=F (3G,B,F (3G,B,F (3G,B,F | %11
 (3=G,=CE (3G,B,E (3G,^CE (3F,CE | (3F,B,=D (3F,B,D (3=G,B,C (3E,B,C | %13
 (3F,B,=D (3F,B,D (3F,^A,C (3F,A,C |[K:treble] (3B,=DF (3B,DF (3B,^DF (3B,DF | %15
 (3B,E=G (3B,EG (3B,EG (3B,EG | (3B,DF (3B,DF (3B,DF (3B,DF | (3B,E=G (3B,EG (3B,EG (3B,EG | %18
 (3B,DF (3B,DF (3B,=D^E (3B,DE | (3B,CG (3B,CG (3A,CF (3A,CF | %20
[K:bass] (3=G,B,=D (3G,B,D (3F,A,^D (3F,A,D | (3C,F,A, (3C,F,A, (3C,F,G, (3C,^E,G, | %22
 (3F,A,C (3A,CF[K:treble] (3CFA (3CFA | (3CGB (3CGB (3CGB (3CGB | (3CFA (3CFA (3^B,FA (3B,FA | %25
 (3DFG (3DFG (3DFG (3DFG | (3EGc (3EGc (3DFA (3CE^A | (3^B^B,D (3GB,D (3AB,D (3FB,D | %28
[K:bass] (3z ^B,D (3G,B,D (3A,B,D (3F,B,D | (3E,[K:treble]EG (3cEG (3eEG (3cEG | %30
[K:bass] (3z E,G, (3CE,G, (3EE,G, (3CE,G, | (3D,A,F, (3^B,A,D[K:treble] (3B,FD (3AF^B | %32
[K:bass] (3E,CG,[K:treble] (3ECG (3EcG (3ecG | (3C^^FE (3^AFc (3Aec (3^^fe^a | %34
 (3^F^B=A (3dB^f (3d=af (3^bad' | (3^bfa (3df^B (3dAB (3FAD | %36
 (3F^B,D[K:bass] (3A,^B,F, (3A,D,F, (3C,F,A, | (3^B,,F,G, (3A,G,F, (3D,F,A, (3C,F,A, | %38
 (3^B,,F,G, (3A,G,F, (3=D,F,A, (3C,F,A, | (3^B,,F,G, (3A,G,F, (3C,E,C (3C,E,C | %40
 (3D,A,C (3D,A,C (3D,G,^B, (3D,F,B, | (3E,G,C (3G,CE (3G,CE (3G,CE | %42
[K:treble] (3G,DF (3G,DF (3G,DF (3G,DF | (3G,CE (3G,CE (3A,CF (3A,CF | %44
 (3G,B,E (3G,B,E (3A,B,D (3A,B,D | (3G,B,E (3B,EG (3B,EG (3B,EG | (3B,FA (3B,FA (3B,FA (3B,FA | %47
 (3B,EG (3B,EG (3^B,FG (3CEG | (3DFG (3DFG (3EGc (3EGc | (3=DFA (3DFA (3^B,FG (3B,FG | %50
 (3CEG (3CEG (3C^EG (3CEG | (3CFA (3CFA (3CFA (3CFA | (3C^EG (3CEG (3CEG (3CEG | %53
 (3CFA (3CFA (3CFA (3CFA | (3C^EG (3CEG (3CFA (3CFA | (3B,FA (3B,FA (3B,FA (3B,EG | %56
 (3A,EG (3A,DF (3G,DF (3G,CE |[K:bass] (3F,CD (3F,CD (3G,CD (3A,CD | %58
 (3G,CE (3G,CE (3F,^B,D (3F,B,D | (3E,G,C (3G,CE (3G,CE (3G,CE | (3G,DF (3G,DF (3G,DF (3G,DF | %61
[K:treble] (3G,EC (3GEc (3Gec (3gec | (3^BdA (3BFA[K:bass] (3DFA,- ^B,2 | %63
 (3[E,C][K:treble]EC (3GEc (3Gec (3gec | (3^BdA (3BFA[K:bass] (3DFA,- ^B,2 | %65
 (3[E,C]G,C (3ECG, (3z E,G, (3CG,E, | (3z C,E, (3G,E,C, z4 | z4 [E,G,C]4 | !fermata![E,G,C]8 |] %69
[K:Db][M:3/4][K:treble]!p! A2 | A4 =G2 | A2 z2 F2 | A2 z2 =G2 | A2 z2 d2 | d4 c2 | d2 z2 .[EB]2 | %76
 .[Ad]2 z2 .[Ac]2 | .[Fd]2 z2 D2- | DE GF E2 | E2 A2 F2 | A2 A2 =G2- | G2 A2 _G2- | G2 A2 B2 | %83
 A2 z2 B2 | d2 z2 c2- | c2 d2 |: F2 | F4 F2 | E4 E2 | E4 E2 | D4 D2 | G4 F2 | G4 E2- | E2 D2 B,2 | %94
 D2 C2 D2 | C4 D2 | .E2 z2 F2 | A2 A2 =G2- | G2 A2 B2 | A4 G2 | .F2 z2 G2- | G2 A2 B2 | %102
 .A2 z2 G2- | G2 A2 B2- | B2 A2 z2 | x6 | x4 :| [F,F]2- | [F,F]4 [G,G]2- | [G,G]4 [Ee]2- | %110
 [Ee]2 [Cc]2 .[A,A]2 | [Dd]2 [Ff]2 [F,F]2- | [F,F]4 [G,G]2- | [G,G]4 [Gg]2- | [Gg]2 [Bb]2 .[Cc]2 | %115
 [Ee]2 [Dd]2 [Dd]2 | (DF AF AF) | (CE AE AE) | (CE GE GE) | (A,D FD FE) | (DF AF AF) | (EG AG AG) | %122
 (EG BG AB) | (c2 d2) [Ff]2- | [Ff]4 [B,B]2- | [B,B]4 [Ee]2- | [Ee]4 [A,A]2- | [A,A]4 [Dd]2- | %128
 [Dd]4 [G,G]2- | [G,G]4 [F,F]2- | [F,F]2 [A,A]2 [_C_c]2- | [Cc]2 [B,B]2 [Dd]2- | %132
 [Dd]4[K:bass] [G,G]2- | [G,G]4 [F,F]2- | [F,F]4 [=E,=E]2- | [E,E]4 [F,F]2- | [F,F]4 [G,G]2- | %137
 [G,G]4 [F,F]2- | [F,F]2 [G,G]2 .[C,C]2 | .[D,D]2[K:treble] .[F,F]2 [A,A]2 | B6 | B6 | A6 | A6 | %144
 B6 | B6 | A6 | B6 | G6 | A6 | =G6 | A6 | B6 | A4 D2- | D2 E2 .G2 | .F2 z2 [Ad]2 | [Ac]4 [=GB]2 | %157
 .[Ae]2 z2 .[Fd]2 | .[Ac]2 z2 .[=GB]2 | .A2 z2 [d_g]2 | [df]4 [ce]2 | .[da]2 z2 .[Bg]2 | %162
 .[df]2 z2 .[ce]2 | .d2 z2 [Dd]2- | [Dd]2 [Cc]2 [B,B-]2 | B2 e2 d2- | d2 c2 B2- | B2 A2 [_G_g]2- | %168
 [Gg]2 [Ff]2 [Ee-]2 | e2 a2 g2- | g2 f2 e2- | e2 d2 [Fd]2 | [Fd]4 [Fd]2 | d2 c2 _c2 | _c4 c2 | %175
 _c2 B2 B2 | =c4 d2 | e4 G2- | G2 F2 BG | [DF]2 [CE]2 [Dd]2 | [Cc]4 [B,B]2 | .[Ee]2 z2 d2- | %182
 d2 c2 B2- | B2 A2 [_G_g]2 | [Ff]4 [Ee]2 | .[Aa]2 z2 [Gg]2- | [Gg]2 [Ff]2 .[Ee]2 | %187
 .[Aa]2 z2 [Gg]2- | [Gg]2 [Ff]2 [Bb]2- | [Bb]2 [Aa]2 z2 | C4 ED | [F,D]2 z4 |] %192
[K:E][M:2/2][K:bass]!p! z/ G,,/C,/E,/ G,/C,/E,/G,/ C/G,/C/E/[K:treble] E/G,/C/E/ |: %193
 G/C/E/G/ c/E/G/c/ e/G/c/e/.[Gceg].[Gceg] | %194
[K:bass] z/ G,,/^B,,/D,/ G,/B,,/D,/G,/ ^B,/D,/G,/B,/[K:treble] D/G,/^B,/D/ | %195
 G/^B,/D/G/ ^B/D/G/B/ d/G/B/d/.[GBdg].[GBdg] | %196
[K:bass] z/ C,/^E,/G,/ C/E,/G,/C/[K:treble] ^E/G,/C/E/ G/C/E/G/ | %197
 c/^E/G/c/ ^e/G/c/e/ g/c/e/g/.[cegc'].[cegc'] | %198
[K:bass] z/ C,/F,/A,/[K:treble] .C/C/F/A/ .c/c/f/a/.[cfc'].[cfc'] | %199
[K:bass] z/ C,/E,/^^F,/[K:treble] .C/C/E/^^F/ .c/c/e/^^f/.[cfc'].[cfc'] | %200
!f! [^Bg^b] G/g/ G/g/^A/g/ B/g/c/g/ d/g/B/g/ | d/g/c/g/ f/g/e/g/ d/g/c/g/ ^B/g/=A/^^f/ | %202
 G/g/G/g/ G/g/^A/g/ ^B/g/c/g/ d/g/B/g/ | d/g/c/g/ f/g/e/g/ d/g/c/g/ ^B/g/=A/^^f/ | %204
 G/g/A/^^f/ G/g/A/f/ G/g/A/f/ G/g/A/f/ | .[Gg]2 !fermata!G,6 | %206
[K:bass]!p! z/ G,,/C,/E,/ G,/C,/E,/G,/ C/E,/G,/C/[K:treble] E/G,/C/E/ | %207
 G/C/E/G/ c/E/G/c/ e/e/g/c'/.[ee'].[ee'] | %208
[K:bass] z/ E,/^^F,/C/ E/F,/C/E/[K:treble] ^^F/C/E/F/ c/E/F/c/ | %209
 e/^^F/c/e/ ^^f/c/e/f/ c'/e/f/c'/.[ee'].[ee'] | %210
[K:bass]"_cresc." z/ D,/^A,/C/ D/A,/C/D/[K:treble] ^A/C/D/A/ c/D/A/c/ | %211
 d/^A/c/d/ ^a/c/d/a/ c'/a/d/c/ a/d/c/A/ |!p! B2 d4 B>G |{^^FG^A} G2 F2- FFd>F | ^A2 G2- GGd>G | %215
 B2 ^A2- AAd>A | .B [dd']2 [dd']- [dd'].[dd'].[Bb].[Gg] | %217
 .[Gg] [^^F^^f]2 [Ff]- [Ff].[Ff].[dd'].[Ff] | .[^A^a] [Gg]2 [Gg]- [Gg].[Gg].[dd'].[Gg] | %219
 .[Bb] [^A^a]2 [Aa]- [Aa].[Aa].[dd'].[Aa] | [^Bg]4 [cg]4 | [^Af]2 [Bf]6 | [Ge]4 [Ae]4 | %223
 [^^Fd]2 [Gd]6 |!ff! [Acea]4 z4 |!p! [cea]2 z2 [cea]2 z2 |!<(! [cea]2 [cea]2 [cea]2 [cea]2!<)! | %227
!p! d/b/g/b/ d/b/g/b/ d/c'/^^f/c'/ d/c'/f/c'/ | [egb]2!ff! [A,CEA]2- [A,CEA]/!p!E/F/G/ A/B/c/B/ | %229
 A/E/F/G/ A/B/c/B/ A/E/F/G/ A/B/c/B/ |"_cresc." A/E/F/G/ A/B/c/B/ A/E/F/G/ A/B/c/B/ | %231
 A/E/F/G/ A/B/c/=d/ e/f/g/a/ b/c'/=d'/^d'/ |!f! [ee']4 [Gg]4 | [Bb]4 [^^F,C^^F]4 | %234
 [G,B,G]!p! .[DB].[DB].[DB] .[DB].[DB].[D^A].[DG] | [D^^F] .[Fd].[Fd].[Fd] .[Fd].[Fd].[Gd].[^Ad] | %236
 .[Bd] .[DB].[DB].[DB] .[DB].[DB].[D^A].[DG] | .[D^^F] .[Fd].[Fd].[Fd] .[Fd].[Fd].[Gd].[^Ad] | %238
 .[Bd] .[Bd]([Bd].[GB]) z .[ce]([ce].[Gc]) | z .[Bd]([Bd].[GB]) z .[^Ad]([Ad].[^^FA]) | %240
 [GB]!p! [Bdb]!<(![Bdb][Bdb] [Bdb][Bdb][^Ac^a][GBg]!<)! | %241
 [^^F^A^^f]!f! [efe'][efe'][efe'] [efe'][efe'][dfd'][cfc'] | %242
 [Bdb]!p! [Bdb]!<(![Bdb][Bdb] [Bdb][Bdb][^Ac^a][GBg]!<)! | %243
 [^^F^A^^f]!f! [efe'][efe'][efe'] [efe'][efe'][dfd'][cfc'] | %244
 [Bgb]!p! .[gb]([gb][bd']) z .[gc']([gc'][c'e']) | z .[gb]([gb][bd']) z .[^^f^a]([fa][ad']) | %246
 z!<(! .[db]([db][gd']) z .[ca]([ca][ec'])!<)! | z .[Bg]([Bg]!>(![db]) z .[^A^^f]([Af][c^a])!>)! | %248
!p! [Bg]2 z2 z2 B>G | ^^F2 (.[CFd]2 .[CFd]2 .[CFd]2) |{B,G} d6 b>g | %251
 ^^f2 (.[cfd']2 .[cfd']2 .[cfd']2) |{Bg} d'4{c^^f} d'4 |{Bg} d'4{c^^f} d'4 | %254
"_cresc." B,/G/D/G/ B,/G/D/G/ B,/G/D/G/ B,/G/D/G/ | ^B,/F/D/F/ B,/F/D/F/ B,/F/D/F/ B,/F/D/F/ |1 %256
 [E,G,CE]/G,,/C,/E,/ G,/C,/E,/G,/ C/E,/G,/C/[K:treble] E/G,/C/E/ :|2 %257
 [^E,G,C^E]/C,/E,/G,/ C/E,/G,/C/[K:treble] ^E/G,/C/E/ G/C/E/G/ || %258
 c/^E/G/c/ ^e/G/c/e/ g/c/e/g/.[cegc'].[cegc'] | %259
[K:bass] z/ C,/^E,/G,/ C/E,/G,/C/[K:treble] ^E/G,/C/E/ G/C/E/G/ | %260
 c/^E/G/c/ ^e/G/c/e/ g/c/e/g/.[cegc'].[cegc'] | %261
[K:bass] z/ C,/F,/A,/[K:treble] .C/C/F/A/ .c/c/f/a/.[cfac'].[cfac'] | %262
[K:bass] z/ C,/G,/B,/[K:treble] .C/C/G/B/ .c/c/g/b/.[cgbc'].[cgbc'] | %263
 .[cfac']2!p! [Ff]2 [Ff]2 [Ff]2 | [^E^e]2 [Ee]2 [Ee]2 [Ee]2 | [Ff]2 [Ff]2 [Ff]2 [Ff]2 | %266
 [Gg]2 [Gg]2 [Gg]2 [Gg]2 | .[Ff]2 c4 A>F | F2 ^E2- EEc>E | G2 F2- FFc>F |!<(! .FF=d>F .FFd>F!<)! | %271
 .=G2 =D4 x2 | x8 | x8 | x8 | x8 | x8 | x8 | x8 |[K:treble] .[D^Bd]2 G4 AG | F2 GF E2 FE | %281
 D2 ED C2 DC | x8 | x2 g2-"_cresc." g.g.a.g | .f.[Acf].[Bdg].[Acf] .[GBe].[GBe].[Acf].[GBe] | %285
 .[FAd].[FAd].[GBe].[FAd] .[EGc].[EGc].[FAd].[EGc] |!p!!<(! [DF^B]4 [CEc]4!<)! | %287
!>(!{^B,F-} [Fd]6 [CEc]2!>)! |!<(! .[DF^B]2 .[DFB]2 .[CEc]2 .[CEc]2!<)! | %289
!>(!{^B,F} [Fd]6 [CE]c!>)! |!<(! [DF]^B[DF]B [CE]c[CE]c!<)! | [^B,F]d[B,F]d!>(! [CE]c[CE]c!>)! | %292
!p! [A,CDA]8 |!pp! [G,^B,DG]8 | %294
!p! z/[K:bass] G,,/C,/E,/ G,/C,/E,/G,/ C/G,/C/E/[K:treble] E/G,/C/E/ | %295
 G/C/E/G/ c/E/G/c/ e/G/c/e/.[Gceg].[Gceg] | %296
[K:bass] z/ G,,/^B,,/D,/ G,/B,,/D,/G,/ ^B,/D,/G,/B,/[K:treble] D/G,/^B,/D/ | %297
 G/^B,/D/G/ ^B/D/G/B/ d/G/B/d/.[GBdg].[GBdg] | %298
[K:bass] z/ C,/^E,/G,/ C/E,/G,/C/[K:treble] ^E/G,/C/E/ G/C/E/G/ | %299
 c/^E/G/c/ ^e/G/c/e/ g/c/e/g/.[cegc'].[cegc'] | %300
[K:bass] z/ C,/F,/A,/[K:treble] .C/C/F/A/ .c/c/f/a/.[cfc'].[cfc'] | %301
[K:bass] z/ C,/E,/^^F,/[K:treble] .C/C/E/^^F/ .c/c/e/^^f/.[cfc'].[cfc'] | %302
!f! [^Bg^b] G/g/ G/g/^A/g/ B/g/c/g/ d/g/B/g/ | d/g/c/g/ f/g/e/g/ d/g/c/g/ ^B/g/=A/^^f/ | %304
 G/g/G/g/ G/g/^A/g/ ^B/g/c/g/ d/g/B/g/ | d/g/c/g/ f/g/e/g/ d/g/c/g/ ^B/g/=A/^^f/ | %306
 G/g/A/^^f/ G/g/A/f/ G/g/A/f/ G/g/A/f/ | .[Gg]2 !fermata!G,6 |!p! z2[K:bass] C4 G,>E, | %309
{D,E,F,} E,2 D,2- D,D,^B,>D, | F,2 E,2- E,E,C>E, | =G,2 F,2- F,F,^B,>F, | %312
 .G,[K:treble] [Gc]2 [Gc]- [Gc].[Gc].[EG].[CE] | .[CE] [^B,D]2 [B,D]- [B,D].[B,D].[G^B].[B,D] | %314
 .[DF] [CE]2 [CE]- [CE].[CE].[Gc].[CE] | .[EG] [DF]2 [DF]- [DF].[DF].[G^B].[DF] | [^Ec]4 [Fc]4 | %317
 [DB]2 [EB]6 | [CA]4 [=DA]4 | [^B,G]2 [CG]6 |!ff! [=DFA=d]4- [DFAd]/A/B/c/ d/e/f/e/ | %321
 =d/A/B/c/ d/e/f/e/ d/A/B/c/ d/e/f/e/ |!<(! =d/A/B/c/ d/e/f/=g/ a/^g/b/a/ =g/f/e/d/!<)! | %323
!p! c4 T^d4{cd} | .c2[K:bass]!ff! [=D,F,A,=D]2- [D,F,A,D]2 z2 | z2!p! [F,A,=D]2 z2 .[F,A,D]2 | %326
 z!<(! [F,A,=D] z [F,A,D] z [F,A,D] z [F,A,D]!<)! |!f! [A,A]4 [C,C]4 | [E,E]4 [^B,,F,^B,]4 | %329
 [C,E,C][K:treble]!p! .[G,E].[G,E].[G,E] .[G,E].[G,E].[G,D].[G,C] | %330
 [G,^B,] .[=CG].[CG].[CG] .[CG].[CG].[^CG].[DG] | %331
 .[EG] .[G,E].[G,E].[G,E] .[G,E].[G,E].[G,D].[G,C] | %332
 .[G,^B,] .[B,G].[B,G].[B,G] .[B,G].[B,G].[CG].[DG] | .[EG] .[EG]([EG].[CE]) z .[FA]([FA].[CF]) | %334
 z .[EG]([EG].[CE]) z .[DG]([DG].[^B,D]) | [CEG]!p! [EGe]!<(![EGe][EGe] [EGe][EGe][DFd][CEc]!<)! | %336
 [^B,D^B]!f! [Bd^b][Bdb][Bdb] [Bdb][Bdb][cec'][dfd'] | %337
 [ege']!p! [EGe]!<(![EGe][EGe] [EGe][EGe][DFd][CEc]!<)! | %338
 [^B,D^B]!f! [Bd^b][Bdb][Bdb] [Bdb][Bdb][cec'][dfd'] | %339
 [ege']!p! .[gc']([gc'][eg]) z .[ac']([ac'][fa]) | z .[eg]([eg][ce]) z .[dg]([dg][^Bd]) | %341
 z .[cg]([cg][Ge]) z .[Af]([Af][F=d]) | z .[Ge]([Ge][Ec]) z .[F^d]([Fd][D^B]) | %343
!p! [Ec]2 z2 z2 E>C | ^B,2 (.[F,B,G]2 .[F,B,G]2 .[F,B,G]2) |{E,C} G6 e>c | %346
 ^B2 (.[FBg]2 .[FBg]2 .[FBg]2) |{Ec} g4{F^B} g4 |{Ec} g4{F^B} g4 | %349
[K:bass]"_cresc." E,/C/G,/C/ E,/C/G,/C/ E,/C/G,/C/ E,/C/G,/C/ | %350
 [C,^E,]/C/G,/C/ [C,E,]/C/G,/C/ [C,E,]/C/G,/C/ [C,E,]/C/G,/C/ | %351
 [C,F,A,C]/C,/F,/A,/ C/F,/A,/C/[K:treble] F/A,/C/F/ A/C/F/A/ | %352
 c/F/A/c/ f/A/c/f/ a/c/f/a/.[cfac'].[cfac'] | %353
[K:bass] z/ C,/E,/G,/ C/E,/G,/C/[K:treble] E/G,/C/E/ G/C/E/G/ | %354
 c/E/G/c/ e/G/c/e/ g/c/e/g/.[cegc'].[cegc'] | %355
[K:bass] z C,/4-E,/4-^^F,/4-A,/4- [C,E,F,A,C]2- [C,E,F,A,C][K:treble] C/4-E/4-^^F/4-^A/4- [CEFAc]2- | %356
 [CEFAc] c/4-e/4-^^f/4-^a/4- !fermata![cefac']6 | %357
[K:bass] z =A,,/4-^B,,/4-D,/4-^F,/4- [A,,B,,D,F,=A,]2- [A,,B,,D,F,A,][K:treble] A,/4-^B,/4-D/4-F/4- [A,B,DFA]2- | %358
 [A,B,DFA]/A/-^B/-d/- !fermata![ABd]6 |!p! .C2 G4 E>C | C2 ^B,2- B,B,G>B, | D2 C2- CCG>C | %362
 E2 D2- DDG>D | .[CE]2 [Gg]4 [Ee]>[Cc] | [Cc]2 [^B,^B]2- [B,B][B,B][Gg]>[B,B] | %365
 [Dd]2 [Cc]2- [Cc][Cc][Gg]>[Cc] | [Ee]2 [Dd]2- [Dd][Dd][Gg]>[Dd] | %367
"_cresc." [Ff][Ee].[cc'].[Ee] [Ff][^E^e].[cc'].[Ee] | [Gg][Ff].[cc'].[Ff] [Aa][Gg].[cc'].[Gg] | %369
!f! (3afc (3AFC (3AFC x2 | x4 F/A/c/f/ a/f/c/A/ | (3af=d (3AF=D (3AFD x2 | x4 F/A/=d/f/ a/f/d/A/ | %373
 (3c'^a^^f (3ec^A (3ecA ^^F/E/C/^A,/ | x4 (6:4:6A,/C/E/^^F/^A/c/ (6:4:6e/^^f/^a/c'/a/e/ | %375
 (3e'c'g (3ecG (3ecG E/c/G/E/ | C/G/E/C/ x2 x4 | z8 | %378
 ^B,/C/^^C/D/ (5:4:5E/^E/F/^^F/G/ (5:4:5A/^A/=B/^B/^c/ (3=d/^d/=e/ ^e/4f/4^^f/4g/4 | %379
 Ta8 (gfedfc^BdAGFAEDFC^B,D) x2 x4 x4 x4 x |!p! z8 | z8 |!p! [Ec]2 z2 z2 E>C | %383
 ^B,2 (.[F,B,G]2 .[F,B,G]2 .[F,B,G]2) |{E,C} G6 e>c | ^B2 (.[FBg]2 .[FBg]2 .[FBg]2) | %386
"_cresc."{Ec} g4{F^B} g4 |{Ec} g4{F^B} g4 |!f!{Ec} g/E/G/c/ e/G/c/e/ g/c/e/g/ c'/e/g/c'/ | %389
 e'/c'/g/e/ c'/g/e/c/ g/e/c/G/ e/c/G/E/ | c/G/E/C/ G/E/C/G,/ x4 | z4!ff! .[cegc']2 z2 | %392
 !fermata![CEGc]8 |] x8 | .[D^Bd]2 G4 AG | F2 GF E2 FE | D2 ED C2 DC | x8 | x2 g2- g.g.a.g | %399
 .f.[Acf].[Bdg].[Acf] .[GBe].[GBe].[Acf].[GBe] | %400
 .[FAd].[FAd].[GBe].[FAd] .[EGc].[EGc].[FAd].[EGc] | [DF^B]4 [CEc]4 |{^B,F-} [Fd]6 [CEc]2 | %403
 .[DF^B]2 .[DFB]2 .[CEc]2 .[CEc]2 |{^B,F} [Fd]6 [CE]c | [DF]^B[DF]B [CE]c[CE]c | %406
 [^B,F]d[B,F]d [CE]c[CE]c | [A,CDA]8 |!pp! [G,^B,DG]8 || %409
V:4
 [C,,C,]8 | [B,,,B,,]8 | [A,,,A,,]4 [F,,,F,,]4 | [G,,,G,,]4 [G,,,G,,]4 | [C,,G,,C,]8 | %5
 [^B,,,G,,^B,,]8 | ([C,,C,]4 [F,,,F,,]4) | [B,,,B,,]4 [B,,,B,,]4 | [E,,E,]8 | [E,,E,]8 | %10
 [=D,,=D,]8 | [=C,,=C,]2 [B,,,B,,]2 [^A,,,^A,,]4 | [B,,,B,,]4 E,,2 =G,,2 | F,,4 [F,,,F,,]4 | %14
 [B,,,B,,]8- | [B,,,B,,]2 [E,,E,]2 [=G,,=G,]2 [E,,E,]2 | [B,,,B,,]8- | %17
 [B,,,B,,]2 [E,,E,]2 [=G,,=G,]2 [E,,E,]2 | [B,,,B,,]4 [^G,,,^G,,]4 | [^E,,,^E,,]4 [F,,,F,,]4 | %20
 [B,,,B,,]4 [^B,,,^B,,]4 | C,,4 C,,4 | [F,,,C,,F,,]8 | [^E,,C,^E,]8 | [F,,F,]4 [D,,D,]2 [C,,C,]2 | %25
 [^B,,,G,,^B,,]6 [B,,,G,,B,,]2 | [C,,G,,C,]4 [F,,,F,,]2 [^^F,,,^^F,,]2 | [G,,,G,,]8 | [G,,,G,,]8 | %29
 [G,,,G,,]8 | [G,,,G,,]8 | [G,,,G,,]8 | [G,,,G,,]8 | [G,,,G,,]8 | [G,,,G,,]8- | [G,,,G,,]8- | %36
 [G,,,G,,]8 | [G,,,G,,]8 | [G,,,G,,]8 | [G,,,G,,]4 [A,,,A,,]4 | [F,,,F,,]4 [G,,,G,,]4 | %41
 [C,,G,,C,]8 | [^B,,,G,,^B,,]8 | [C,,C,]4 [F,,,F,,]4 | [B,,,B,,]4 [B,,,B,,]4 | [E,,E,]8 | %46
 [D,,D,]8 | [E,,E,]4 [D,,D,]2 [C,,C,]2 | [^B,,,G,,^B,,]4 [C,,G,,C,]4 | [F,,,F,,]4 [G,,,G,,]4 | %50
 [C,,C,]8- | [C,,C,]2 [F,,F,]2 [A,,A,]2 [F,,F,]2 | [C,,C,]8- | %53
 [C,,C,]2 [F,,F,]2 [A,,A,]2 [F,,F,]2 | [C,,C,]4 [F,,,F,,]4 | [D,,D,]6 [E,,E,]2 | %56
 [C,,C,]2 [D,,D,]2 [^B,,,^B,,]2 [C,,C,]2 | [A,,,A,,]4 [G,,,G,,]2 [F,,,F,,]2 | %58
 [G,,,G,,]4 [G,,,G,,]4 | G,,6 G,,>G,, | G,,6 G,,>G,, | G,,6 G,,>G,, | G,,6 G,,>G,, | G,,6 G,,>G,, | %64
 G,,6 G,,>G,, | G,,4 C,4 | G,,4 (3G,,C,G,, (3E,,G,,E,, | C,,4 [C,,G,,C,]4 | !fermata![C,,G,,C,]8 |] %69
[K:Db][M:3/4] F2 | E4 D2 | .C2 z2 .[D,B,]2 | .[E,E]2 z2 .[E,D]2 | .[A,C]2 z2[K:treble] B2 | A4 G2 | %75
 .F2 z2[K:bass] .G,2 | .A,2 z2 .A,2 | .D2 z2 [F,A,]2 | [E,A,]4 [D,=G,]2 | .[C,C]2 z2 .[D,B,]2 | %80
 .[E,E]2 z2 .[E,D]2 | .[A,C]2 z2 [B,D]2 | [A,D]4 [G,C]2 | .[F,F]2 z2 .[G,E]2 | .[A,A]2 z2 .[A,G]2 | %85
 .[DF]2 z2 |: D2 | B,4 A,2 | =G,2 A,2 A,2 | A,4 _G,2 | F,2 G,2 G,2 | [E,A,]4 [D,A,]2 | [C,A,]6 | %93
 A,4 G,E, | A,4 [F,A,]2 | [E,A,]4 [D,=G,]2 | .[C,C]2 z2 .[D,B,]2 | .[E,E]2 z2 .[E,D]2 | %98
 .[A,C]2 z2 [B,D]2 | [A,D]4 [G,C]2 | .[F,D]2 z2 [B,D]2 | [A,D]4 [G,C]2 | .[F,D]2 z2 [B,D]2 | %103
 [A,D]4 [=G,D=E]2 | [A,DF]2 z2 z2 | [E,G,]6 | [D,F,]2 z2 :| z2 | A,,6- | A,,6- | A,,6- | A,,6 | %112
 A,,6- | A,,6- | A,,4 A,,2- | [D,,A,,]4 z2 | A,,6- | A,,6- | A,,6- | A,,6 | A,,6- | A,,6- | %122
 A,,4 A,,2- | [D,,A,,]4 z2 | [=D,A,]6 | [_D,=G,]6 | [C,_G,]6 | [_C,F,]6 | D,6- | D,6- | D,6- | %131
 D,6 | D,6- | D,6- | D,6- | D,6 | D,6- | D,6 | [A,,,A,,]4 .A,,2 | .D,,2 z4 | [=D,A,]6 | [_D,=G,]6 | %142
 [C,_G,]6 | [_C,F,]6 | D,6- | D,6- | D,6- | D,6 | D,6- | D,6- | D,6- | D,6 | D,6- | D,6 | %154
 [A,,,A,,]4 .A,,2 | .D,,2 z2 F2 | E4 D2 | .C2 z2 .[D,B,]2 | .[E,E]2 z2 .[E,D]2 | %159
 .[A,C]2 z2[K:treble] B2 | A4 G2 | .F2 z2 .[G,E]2 | .[A,A]2 z2 .[A,G]2 | %163
 .[DF]2 z2[K:bass] [F,A,]2 | [E,A,]4 [D,=G,]2 | .[C,C]2 z2 .[D,B,]2 | .[E,E]2 z2 .[E,D]2 | %167
 .[A,C]2 z2 [B,D]2 | [A,D]4 [G,C]2 | .[F,F]2 z2 .[G,E]2 | .[A,A]2 z2 .[A,G]2 | .[DF]2 z2 D2 | %172
 B,4 A,2 | =G,2 A,2 A,2 | A,4 _G,2 | F,2 G,2 G,2 | [E,A,]4 [D,A,]2 | [C,A,]6 | A,4 G,E, | %179
 A,4 [F,A,]2 | [E,A,]4 [D,=G,]2 | .[C,C]2 z2 .[D,B,]2 | .[E,E]2 z2 .[E,D]2 | .[A,C]2 z2 [B,D]2 | %184
 [A,D]4 [G,C]2 | .[F,D]2 z2 [B,D]2 | [A,D]4 [G,C]2 | .[F,D]2 z2 [B,D]2 | [A,D]4 [=G,D=E]2 | %189
 [A,DF]2 z2 z2 | [A,,,A,,]6 | [D,,A,,]2 z4 |][K:E][M:2/2] .C,,.G,,.C,,.G,, .C,,.G,,.C,,.G,, |: %193
 .C,,.G,,.C,,.G,, .C,,.G,,.[C,,C,].G,, | .^B,,,.G,,.B,,,.G,, .B,,,.G,,.B,,,.G,, | %195
 .^B,,,.G,,.B,,,.G,, .B,,,.G,,.[B,,,^B,,].G,, | .=B,,,.G,,.B,,,.G,, .B,,,.G,,.B,,,.G,, | %197
 .B,,,.G,,.B,,,.G,, .B,,,.G,,.[B,,,B,,].G,, | .A,,,.A,,.A,,,.A,, .A,,,.A,,.A,,,.A,, | %199
 .A,,,.A,,.A,,,.A,, .A,,,.A,,.A,,,.A,, | [G,,,G,,] ^B,B,C DEFD | FEAG FEDC | ^B,B,B,C DEFD | %203
 FEAG FEDC | .[G,^B,].[G,C].[G,B,].[G,C] .[G,B,].[G,C].[G,B,].[G,C] | .[G,^B,]2 [G,,,G,,]6 | %206
 .C,,.G,,.C,,.G,, .C,,.G,,.C,,.G,, | .C,,.G,,.C,,.G,, .C,,.G,,.[C,,C,].G,, | %208
 .^A,,,.C,.^A,,.C, .A,,.C,.A,,.C, | .^A,,.C,.A,,.C, .A,,.C,.[^A,,,A,,].C, | %210
 .^^F,,,.D,.^^F,,.D, .F,,.D,.F,,.D, | .^^F,,.D,.F,,.D, .F,,.D,.F,,.D, | %212
 G,,/D,/B,,/D,/ G,,/D,/B,,/D,/ G,,/D,/B,,/D,/ G,,/D,/B,,/D,/ | %213
 ^A,,/D,/C,/D,/ A,,/D,/C,/D,/ A,,/D,/C,/D,/ A,,/D,/C,/D,/ | %214
 B,,/D,/B,,/D,/ B,,/D,/B,,/D,/ B,,/D,/B,,/D,/ B,,/D,/B,,/D,/ | %215
 ^^F,,/D,/F,,/D,/ F,,/D,/F,,/D,/ F,,/D,/F,,/D,/ F,,/D,/F,,/D,/ | %216
 G,,/D,/B,,/D,/ G,,/D,/B,,/D,/ G,,/D,/B,,/D,/ G,,/D,/B,,/D,/ | %217
 ^A,,/D,/C,/D,/ A,,/D,/C,/D,/ A,,/D,/C,/D,/ A,,/D,/C,/D,/ | %218
 B,,/D,/B,,/D,/ B,,/D,/B,,/D,/ B,,/D,/B,,/D,/ B,,/D,/B,,/D,/ | %219
 ^^F,,/D,/F,,/D,/ F,,/D,/F,,/D,/ F,,/D,/F,,/D,/ F,,/D,/F,,/D,/ | %220
 ^F,,/D,/G,,/D,/ F,,/D,/G,,/D,/ E,,/C,/G,,/C,/ E,,/C,/G,,/C,/ | %221
 E,,/C,/F,,/C,/ D,,/B,,/F,,/B,,/ D,,/B,,/F,,/B,,/ D,,/B,,/F,,/B,,/ | %222
 =D,,/B,,/E,,/B,,/ D,,/B,,/E,,/B,,/ C,,/A,,/E,,/A,,/ C,,/A,,/E,,/A,,/ | %223
 C,,/^A,,/^D,,/A,,/ B,,,/G,,/D,,/G,,/ B,,,/G,,/D,,/G,,/ B,,,/G,,/D,,/G,,/ | [C,,E,,A,,C,]4 z4 | %225
[K:treble] [CEA]2 z2 [CEA]2 z2 | [CEA]2 [CEA]2 [CEA]2 [CEA]2 | %227
 D/B/G/B/ D/B/G/B/ D/c/^^F/c/ D/c/F/c/ | [EGB]2[K:bass] [C,,E,,A,,C,]2- [C,,E,,A,,C,]2 z2 | %229
 z2 [C,E,A,]2 z2 [C,E,A,]2 | z [C,E,A,] z [C,E,A,] z [C,E,A,] z [C,E,A,] | [C,E,A,]2 z2 z4 | %232
 C,/A,/E,/A,/ C,/A,/E,/A,/ ^^C,/B,/^E,/B,/ C,/B,/E,/B,/ | %233
 D,/B,/G,/B,/ D,/B,/G,/B,/ D,,/D,/^^C,/D,/ C,/D,/C,/D,/ | G,, .G,.G,.G, .G,.G,.^A,.B, | %235
 .[D,C] .[CD].[CD].[CD] .[CD].[CD].[B,D].[^A,D] | .[G,,G,] .G,.G,.G, .G,.G,.^A,.B, | %237
 .[D,C] .[CD].[CD].[CD] .[CD].[CD].[B,D].[^A,D] | %238
 .G,, .[G,B,]([G,B,].[B,D]) .C, .[G,C]([G,C].[CE]) | %239
 .D, .[G,B,]([G,B,].[B,D]) .D, .[^^F,^A,]([F,A,].[A,D]) | %240
 [G,,,G,,] [G,,D,][G,,D,][G,,D,] [G,,D,][G,,D,][^A,,D,][B,,D,] | %241
 [D,,C,D,] [D,C][D,C][D,C] [D,C][D,C][D,B,][D,^A,] | %242
 [G,,,G,,] [G,,D,][G,,D,][G,,D,] [G,,D,][G,,D,][^A,,D,][B,,D,] | %243
 [D,,C,D,] [D,C][D,C][D,C] [D,C][D,C][D,B,][D,^A,] | %244
 [G,,G,] .[B,D]([B,D][G,B,]) C, .[CE]([CE][G,C]) | %245
 D, .[B,D]([B,D][G,B,]) C, .[^A,D]([A,D][^^F,A,]) | %246
 .B,,[K:treble] .[DG]([DG][B,D])[K:bass] .C,[K:treble] .[EA]([EA][CE]) | %247
[K:bass] .D,[K:treble] .[DG]([DG][B,D])[K:bass] .D,[K:treble] .[C^^F]([CF][^A,C]) | %248
[K:bass] G,,/G,/D,/G,/ G,,/G,/D,/G,/ G,,/G,/D,/G,/ G,,/G,/D,/G,/ | %249
 G,,/^A,/D,/A,/ G,,/A,/D,/A,/ G,,/A,/D,/A,/ G,,/A,/D,/A,/ | %250
 G,,/G,/D,/G,/ G,,/G,/D,/G,/ G,,/G,/D,/G,/ G,,/G,/D,/G,/ | %251
 G,,/^A,/D,/A,/ G,,/A,/D,/A,/ G,,/A,/D,/A,/ G,,/A,/D,/A,/ | %252
 G,,/G,/D,/G,/ G,,/G,/D,/G,/ G,,/^A,/D,/A,/ G,,/A,/D,/A,/ | %253
 G,,/G,/D,/G,/ G,,/G,/D,/G,/ G,,/^A,/D,/A,/ G,,/A,/D,/A,/ | %254
 G,,/G,/D,/G,/ G,,/G,/D,/G,/ G,,/G,/D,/G,/ G,,/G,/D,/G,/ | %255
 G,,/F,/D,/F,/ G,,/F,/D,/F,/ G,,/F,/D,/F,/ G,,/F,/D,/F,/ |1 .C,,.G,,C,,.G,, .C,,.G,,.C,,.G,, :|2 %257
 .C,,.G,,.C,,.G,, .C,,.G,,.C,,.G,, || .C,,.G,,.C,,.G,, .C,,.G,,.[C,,C,].G,, | %259
 .B,,,.G,,.B,,,.G,, .B,,,.G,,.B,,,.G,, | .B,,,.G,,.B,,,.G,, .B,,,.G,,.[B,,,B,,].G,, | %261
 .A,,,.A,,.A,,,.A,, .A,,,.A,,.A,,,.A,, | .^E,,,.^E,,.E,,,.E,, .E,,,.E,,.E,,,.E,, | %263
 [F,,,F,,]/C/A,/C/ F,/C/A,/C/ F,/C/A,/C/ F,/C/A,/C/ | G,/C/B,/C/ G,/C/B,/C/ G,/C/B,/C/ G,/C/B,/C/ | %265
 A,/C/A,/C/ A,/C/A,/C/ A,/C/A,/C/ A,/C/A,/C/ | ^E,/C/E,/C/ E,/C/E,/C/ E,/C/E,/C/ E,/C/E,/C/ | %267
 .F,2 C4 A,>F, | F,2 ^E,2- E,E,C>E, | G,2 F,2- F,F,C>F, | .F,F,=D>F, .F,F,D>F, | .=G,2 =D,4 B,>G, | %272
 =G,2 F,2- F,F,=D>F, | A,2 =G,2- G,G,=D>F, | F,2 ^E,2- E,E,C>E, | .F,F,A,F, .=D,D,F,D, | %276
 ^B,,4- B,,B,,^D,B,, | .C,C,E,C, .A,,A,,C,A,, | .F,,F,,A,,F,, .^^F,,F,,^A,,F,, | !//-!G,,,4 G,,4 | %280
 [A,C]4 [G,B,]4 | [F,A,]4 [E,G,]4 | [D,F,^B,]4 [C,E,C]4 |{^B,,G,} .D2 x2 x4 | !//-!G,,,4 G,,4 | %285
 !//-!G,,,4 G,,4 | !//-!G,,,4 G,,4 | !//-!G,,,4 G,,4 | !//-!G,,,4 G,,4 | !//-!G,,,4 G,,4 | %290
 !//-!G,,,4 G,,4 | !//-!G,,,2 G,,2 !//-!A,,,2 A,,2 | [F,,,F,,]8 | [G,,,G,,]8 | %294
 .C,,.G,,.C,,.G,, .C,,.G,,.C,,.G,, | .C,,.G,,.C,,.G,, .C,,.G,,.[C,,C,].G,, | %296
 .^B,,,.G,,.B,,,.G,, .B,,,.G,,.B,,,.G,, | .^B,,,.G,,.B,,,.G,, .B,,,.G,,.[B,,,^B,,].G,, | %298
 .=B,,,.G,,.B,,,.G,, .B,,,.G,,.B,,,.G,, | .B,,,.G,,.B,,,.G,, .B,,,.G,,.[B,,,B,,].G,, | %300
 .A,,,.A,,.A,,,.A,, .A,,,.A,,.A,,,.A,, | .A,,,.A,,.A,,,.A,, .A,,,.A,,.A,,,.A,, | %302
 [G,,,G,,] ^B,B,C DEFD | FEAG FEDC | ^B,B,B,C DEFD | FEAG FEDC | %306
 .[G,^B,].[G,C].[G,B,].[G,C] .[G,B,].[G,C].[G,B,].[G,C] | .[G,^B,]2 [G,,,G,,]6 | %308
 C,,/E,,/G,,/C,/ C,,/E,,/G,,/C,/ C,,/E,,/G,,/C,/ C,,/E,,/G,,/C,/ | %309
 D,,/F,,/G,,/^B,,/ D,,/F,,/G,,/B,,/ D,,/F,,/G,,/B,,/ D,,/F,,/G,,/B,,/ | %310
 E,,/C,/G,,/C,/ E,,/C,/G,,/C,/ E,,/C,/G,,/C,/ E,,/C,/G,,/C,/ | %311
 ^B,,,/^B,,/G,,/B,,/ B,,,/B,,/G,,/B,,/ G,,/D,/B,,/D,/ G,,/D,/B,,/D,/ | %312
 C,/G,/E,/G,/ C,/G,/E,/G,/ C,/G,/E,/G,/ C,/G,/E,/G,/ | %313
 D,/G,/F,/G,/ D,/G,/F,/G,/ D,/G,/F,/G,/ D,/G,/F,/G,/ | %314
 E,/G,/E,/G,/ E,/G,/E,/G,/ E,/G,/E,/G,/ E,/G,/E,/G,/ | %315
 ^B,,/G,/B,,/G,/ B,,/G,/B,,/G,/ B,,/G,/B,,/G,/ B,,/G,/B,,/G,/ | %316
 B,,/G,/C,/G,/ B,,/G,/C,/G,/ A,,/F,/C,/F,/ A,,/F,/C,/F,/ | %317
 A,,/F,/B,,/F,/ G,,/E,/B,,/E,/ G,,/E,/B,,/E,/ G,,/E,/B,,/E,/ | %318
 =G,,/E,/A,,/E,/ G,,/E,/A,,/E,/ F,,/=D,/A,,/D,/ F,,/D,/A,,/D,/ | %319
 F,,/D,/G,,/D,/ E,,/C,/G,,/C,/ E,,/C,/G,,/C,/ E,,/C,/G,,/C,/ | [F,,A,,=D,F,]4- [F,,A,,D,F,]2 z2 | %321
 [F,A,=D]2 z2 [F,A,D]2 z2 | [F,A,=D]2 [F,A,D]2 [F,A,D]2 [F,A,D]2 | %323
 G,/E/C/E/ G,/E/C/E/ G,/F/^B,/F/ G,/F/B,/F/ | .[A,CE]2 [F,,,A,,,=D,,F,,]2- [F,,,A,,,D,,F,,]2 z2 | %325
 z2 [F,,A,,=D,]2 z2 .[F,,A,,D,]2 | z [F,,A,,=D,] z [F,,A,,D,] z [F,,A,,D,] z [F,,A,,D,] | %327
 F,,/=D,/A,,/D,/ F,,/D,/A,,/D,/ ^^F,,/E,/^A,,/E,/ F,,/E,/A,,/E,/ | %328
 G,,/E,/C,/E,/ G,,/E,/C,/E,/ G,,,/G,,/^^F,,/G,,/ F,,/G,,/F,,/G,,/ | C,, .C,.C,.C, .C,.C,.D,.E, | %330
 .[G,,F,] .[F,G,].[F,G,].[F,G,] .[F,G,].[F,G,].[E,G,].[D,G,] | .[C,,C,] .C,.C,.C, .C,.C,.D,.E, | %332
 .[G,,F,] .[F,G,].[F,G,].[F,G,] .[F,G,].[F,G,].[E,G,].[D,G,] | %333
 .[C,,C,] .[C,E,]([C,E,].[E,G,]) .F,, .[C,F,]([C,F,].[F,A,]) | %334
 .G,, .[C,E,]([C,E,].[E,G,]) .G,, .[^B,,D,]([B,,D,].[D,G,]) | %335
 [C,,C,] [C,G,][C,G,][C,G,] [C,G,][C,G,][D,G,][E,G,] | %336
 [G,,F,G,] [G,F][G,F][G,F] [G,F][G,F][G,E][G,D] | %337
 [C,,C,] [C,G,][C,G,][C,G,] [C,G,][C,G,][D,G,][E,G,] | %338
 [G,,F,G,] [G,F][G,F][G,F] [G,F][G,F][G,E][G,D] | %339
 [C,C][K:treble] .[CE]([CE][EG])[K:bass] .F,[K:treble] .[CF]([CF][FA]) | %340
[K:bass] .G,[K:treble] .[CE]([CE][EG])[K:bass] .F,[K:treble] .[^B,D]([B,D][DG]) | %341
[K:bass] .E, .[G,C]([G,C][CE]) .F,, .[F,A,]([F,A,][A,=D]) | %342
 .G,, .[E,G,]([E,G,][G,C]) .G,, .[^D,F,]([D,F,][F,^B,]) | %343
[K:bass] C,,/C,/G,,/C,/ C,,/C,/G,,/C,/ C,,/C,/G,,/C,/ C,,/C,/G,,/C,/ | %344
 C,,/D,/G,,/D,/ C,,/D,/G,,/D,/ C,,/D,/G,,/D,/ C,,/D,/G,,/D,/ | %345
 C,,/C,/G,,/C,/ C,,/C,/G,,/C,/ C,,/C,/G,,/C,/ C,,/C,/G,,/C,/ | %346
 C,,/D,/G,,/D,/ C,,/D,/G,,/D,/ C,,/D,/G,,/D,/ C,,/D,/G,,/D,/ | %347
 C,,/C,/G,,/C,/ C,,/C,/G,,/C,/ C,,/D,/G,,/D,/ C,,/D,/G,,/D,/ | %348
 C,,/C,/G,,/C,/ C,,/C,/G,,/C,/ C,,/D,/G,,/D,/ C,,/D,/G,,/D,/ | %349
 C,,/C,/G,,/C,/ C,,/C,/G,,/C,/ C,,/C,/G,,/C,/ C,,/C,/G,,/C,/ | %350
 B,,,/B,,/C,,/B,,/ B,,,/B,,/C,,/B,,/ B,,,/B,,/C,,/B,,/ B,,,/B,,/C,,/B,,/ | %351
 .[A,,,A,,].F,,.A,,,.F,, .A,,,.F,,.A,,,.F,, | .A,,,F,,.A,,,.F,, .A,,,.F,,.[A,,,A,,].F,, | %353
 .G,,,.E,,.G,,,.E,, .G,,,.E,,.G,,,.E,, | .G,,,.E,,.G,,,.E,, .G,,,.E,,.[G,,,G,,].E,, | %355
!ped! ^^F,,,2- F,,, F,,,/4-^A,,,/4-C,,/4-E,,/4- [F,,,A,,,C,,E,,^^F,,]2- [F,,,A,,,C,,E,,F,,]^^F,,/4-^A,,/4-C,/4-E,/4- | %356
 [F,,A,,C,E,^^F,]2 !fermata![^^F,^A,CE]6!ped-up! | %357
!ped! ^F,,,2- F,,, F,,,/4-=A,,,/4-^B,,,/4-D,,/4- [F,,,A,,,B,,,D,,F,,]2- [F,,,A,,,B,,,D,,F,,] F,,/4-A,,/4-^B,,/4-D,/4- | %358
 [F,,A,,B,,D,F,]2 !fermata![F,A,^B,D]6!ped-up! | .C,2 G,4 E,>C, | C,2 ^B,,2- B,,B,,G,>B,, | %361
 D,2 C,2- C,C,G,>C, | E,2 D,2- D,D,G,>D, | E,/G,/E,/G,/ E,/G,/E,/G,/ E,/G,/E,/G,/ E,/G,/E,/G,/ | %364
 F,/G,/F,/G,/ F,/G,/F,/G,/ F,/G,/F,/G,/ F,/G,/F,/G,/ | %365
 E,/G,/E,/G,/ E,/G,/E,/G,/ E,/G,/E,/G,/ E,/G,/E,/G,/ | %366
 ^B,,/G,/B,,/G,/ B,,/G,/B,,/G,/ B,,/G,/B,,/G,/ B,,/G,/B,,/G,/ | %367
 C,/G,/C,/G,/ C,/G,/C,/G,/ =B,,/C,/B,,/C,/ B,,/C,/B,,/C,/ | %368
 A,,/C,/A,,/C,/ A,,/C,/A,,/C,/ ^E,,/C,/E,,/C,/ E,,/C,/E,,/C,/ | x4 x2 (3A,F,C, | %370
 A,/F,/C,/A,,/ C,/F,/A,/C/ x4 | x4 x2 (3A,F,=D, | A,/F,/=D,/A,,/ D,/F,/A,/=D/ x4 | %373
 [^^F,,,C,,^^F,,]8- | E/C/^A,/^^F,/ E,/C,/E,/F,/ x4 | [G,,,C,,G,,]8- | %376
 x2 G,/E/C/G,/ E,/C/G,/E,/ C,/G,/E,/C,/ | %377
 G,,/A,,/^A,,/B,,/ ^B,,/C,/^^C,/D,/ E,/^E,/F,/^^F,/ G,/=A,/^A,/=B,/ | z8 | %379
 [G,^B,F]8 x2 x2 x4 x4 x4 x2 (A,G,F,A,E,D,F,C,^B,,)!>(! (.D,2 .A,,2 .G,,2)!>)! | [^^F,,,^^F,,]8 | %381
 [G,,,G,,]8 | C,,/C,/G,,/C,/ C,,/C,/G,,/C,/ C,,/C,/G,,/C,/ C,,/C,/G,,/C,/ | %383
 C,,/D,/G,,/D,/ C,,/D,/G,,/D,/ C,,/D,/G,,/D,/ C,,/D,/G,,/D,/ | %384
 C,,/C,/G,,/C,/ C,,/C,/G,,/C,/ C,,/C,/G,,/C,/ C,,/C,/G,,/C,/ | %385
 C,,/D,/G,,/D,/ C,,/D,/G,,/D,/ C,,/D,/G,,/D,/ C,,/D,/G,,/D,/ | %386
 C,,/C,/G,,/C,/ C,,/C,/G,,/C,/ C,,/D,/G,,/D,/ C,,/D,/G,,/D,/ | %387
 C,,/C,/G,,/C,/ C,,/C,/G,,/C,/ C,,/D,/G,,/D,/ C,,/D,/G,,/D,/ | %388
 [C,,G,,C,]/ E,/G,/C/ E/G,/C/E/[K:treble] G/C/E/G/ c/E/G/c/ | %389
 e/c/G/E/ c/G/E/C/[K:bass] G/E/C/G,/ E/C/G,/E,/ | %390
 C/G,/E,/C,/ G,/E,/C,/G,,/ E/C/G,/E,/ C/G,/E,/G,/ | C,2 z2 .[C,,E,,G,,C,]2 z2 | %392
 !fermata![C,,E,,G,,C,]8 |] .F,,F,,A,,F,, .^^F,,F,,^A,,F,, | [G,,G,]2 [G,,G,]4 [A,,A,][G,,G,] | %395
 [A,C]4 [G,B,]4 | [F,A,]4 [E,G,]4 | [D,F,^B,]4 [C,E,C]4 |{^B,,G,} .D2 x2 x4 | %399
 .[F,F].[F,F].[G,G].[F,F] .[E,E].[E,E].[F,F].[E,E] | %400
 .[D,D].[D,D].[E,E].[D,D] .[C,C].[C,C].[D,D].[C,C] | [G,,G,]4 [C,G,]4 | [^B,,G,]6 [C,G,]2 | %403
 .[^B,,G,]2 .[B,,G,]2 .[C,G,]2 .[C,G,]2 | [G,,G,]6 [C,G,]2 | [^B,,G,]2 [B,,G,]2 [C,G,]2 [C,G,]2 | %406
 [^B,,G,]2 [B,,G,]2 [A,,A,]2 [A,,A,]2 | [F,,,F,,]8 | [G,,,G,,]8 || %409
V:5
 x8 | x8 | x8 | x8 | x8 | x8 | x8 | x8 | x8 | x8 | x8 | x8 | x8 | x8 |[K:treble] x8 | x8 | x8 | %17
 x8 | x8 | x8 |[K:bass] x8 | x8 | x4[K:treble] x4 | x8 | x8 | x8 | x8 | x8 |[K:bass] x8 | %29
 x2/3[K:treble] x22/3 |[K:bass] x8 | x4[K:treble] x4 |[K:bass] x2[K:treble] x6 | x8 | x8 | x8 | %36
 x4[K:bass] (3:2:2A, D,2 C,2 | ^B,,4 D,2 C,2 | ^B,,4 =D,2 C,2 | ^B,,4 x4 | x8 | x8 |[K:treble] x8 | %43
 x8 | x8 | x8 | x8 | x8 | x8 | x8 | x8 | x8 | x8 | x8 | x8 | x8 | x8 |[K:bass] x8 | x8 | x8 | x8 | %61
[K:treble] x8 | x4[K:bass] x2 (3A,G,F, | x2/3[K:treble] x22/3 | x4[K:bass] x2 (3A,G,F, | x8 | x8 | %67
 x8 | x8 |][K:Db][M:3/4][K:treble] x2 | x6 | x6 | x6 | x6 | x6 | x6 | x6 | x6 | x6 | x6 | x6 | x6 | %82
 x6 | x6 | x6 | x4 |: x2 | x6 | x6 | x6 | x6 | x6 | x6 | x6 | x6 | x6 | x6 | x6 | x6 | x6 | x6 | %101
 x6 | x6 | x6 | x6 | x6 | x4 :| x2 | x6 | x6 | x6 | x6 | x6 | x6 | x6 | x6 | x6 | x6 | x6 | x6 | %120
 x6 | x6 | x6 | x6 | x6 | x6 | x6 | x6 | x6 | x6 | x6 | x6 | x4[K:bass] x2 | x6 | x6 | x6 | x6 | %137
 x6 | x6 | x2[K:treble] x4 | B,=D FD FD | B,E =GE GE | CE GE GE | _CD FD FD | B,D GD GD | %145
 A,D GD GD | A,D FD FD | B,D GD GD | G,B, DB, DB, | A,D FD FD | B,D =ED ED | A,C FC FC | %152
 B,D FD GD | A,D FG z2 | x6 | x6 | x6 | x6 | x6 | x6 | x6 | x6 | x6 | x6 | x6 | E2 z2 .F2 | %166
 .A2 z2 .=G2 | x6 | x6 | A2 z2 B2 | d2 z2 c2 | x6 | x6 | E4 E2 | E4 E2 | D4 D2 | G4 F2 | G4 E2- | %178
 E2 D2 B,2 | x6 | x6 | x2 x2 F2 | A2 c2 =G2 | x6 | x6 | x6 | x6 | x6 | x6 | x6 | G,6 | x6 |] %192
[K:E][M:2/2][K:bass] x6[K:treble] x2 |: x8 |[K:bass] x6[K:treble] x2 | x8 | %196
[K:bass] x4[K:treble] x4 | x8 |[K:bass] x2[K:treble] x6 |[K:bass] x2[K:treble] x6 | x8 | x8 | x8 | %203
 x8 | x8 | x8 |[K:bass] x6[K:treble] x2 | x8 |[K:bass] x4[K:treble] x4 | x8 | %210
[K:bass] x4[K:treble] x4 | x8 | x8 | x8 | x8 | x8 | x8 | x8 | x8 | x8 | x8 | x8 | x8 | x8 | x8 | %225
 x8 | x8 | x8 | x8 | x8 | x8 | x8 | x8 | x8 | x8 | x8 | x8 | x8 | x8 | x8 | x8 | x8 | x8 | x8 | %244
 x8 | x8 | x8 | x8 | x8 | x8 | x8 | x8 | x8 | x8 | x8 | x8 |1 x6[K:treble] x2 :|2 %257
 x4[K:treble] x4 || x8 |[K:bass] x4[K:treble] x4 | x8 |[K:bass] x2[K:treble] x6 | %262
[K:bass] x2[K:treble] x6 | x8 | x8 | x8 | x8 | x8 | x8 | x8 | x8 | x8 | x8 | x8 | x8 | x8 | x8 | %277
 x8 | x8 |[K:treble] x8 | x8 | x8 | x8 | x8 | x8 | x8 | x8 | x8 | x8 | x8 | x8 | x8 | x8 | x8 | %294
 x/[K:bass] x11/2[K:treble] x2 | x8 |[K:bass] x6[K:treble] x2 | x8 |[K:bass] x4[K:treble] x4 | x8 | %300
[K:bass] x2[K:treble] x6 |[K:bass] x2[K:treble] x6 | x8 | x8 | x8 | x8 | x8 | x8 | x2[K:bass] x6 | %309
 x8 | x8 | x8 | x[K:treble] x7 | x8 | x8 | x8 | x8 | x8 | x8 | x8 | x8 | x8 | x8 | x8 | %324
 x2[K:bass] x6 | x8 | x8 | x8 | x8 | x[K:treble] x7 | x8 | x8 | x8 | x8 | x8 | x8 | x8 | x8 | x8 | %339
 x8 | x8 | x8 | x8 | x8 | x8 | x8 | x8 | x8 | x8 |[K:bass] x8 | x8 | x4[K:treble] x4 | x8 | %353
[K:bass] x4[K:treble] x4 | x8 |[K:bass] x5[K:treble] x3 | x8 |[K:bass] x5[K:treble] x3 | x8 | x8 | %360
 x8 | x8 | x8 | x8 | x8 | x8 | x8 | x8 | x8 | x8 | x8 | x8 | x8 | x8 | x8 | x8 | x8 | x8 | x8 | %379
 x41 | x8 | x8 | x8 | x8 | x8 | x8 | x8 | x8 | x8 | x8 | x8 | x8 | x8 |] x8 | x8 | x8 | x8 | x8 | %398
 x8 | x8 | x8 | x8 | x8 | x8 | x8 | x8 | x8 | x8 | x8 || %409
V:6
 x8 | x8 | x8 | x8 | x8 | x8 | x8 | x8 | x8 | x8 | x8 | x8 | x8 | x8 | x8 | x8 | x8 | x8 | x8 | %19
 x8 | x8 | x8 | x8 | x8 | x8 | x8 | x8 | x8 | x8 | x8 | x8 | x8 | x8 | x8 | x8 | x8 | x8 | x8 | %38
 x8 | x8 | x8 | x8 | x8 | x8 | x8 | x8 | x8 | x8 | x8 | x8 | x8 | x8 | x8 | x8 | x8 | x8 | x8 | %57
 x8 | x8 | C,,8 | ^B,,,8 | C,,8 | G,,,8 | C,,8 | G,,,8 | C,,8- | C,,8 | x8 | x8 |] %69
[K:Db][M:3/4] x2 | x6 | x6 | x6 | x4[K:treble] x2 | x6 | x4[K:bass] x2 | x6 | x6 | x6 | x6 | x6 | %81
 x6 | x6 | x6 | x6 | x4 |: x2 | x6 | x6 | x6 | x6 | x6 | x6 | D,4 G,,2 | A,,4 x2 | x6 | x6 | x6 | %98
 x6 | x6 | x6 | x6 | x6 | x6 | x6 | [A,,,A,,]6 | [D,,A,,]2 z2 :| x2 | D,,6 | E,,6 | G,,6 | F,,6 | %112
 D,,6 | E,,6 | A,,,4 A,,2 | x6 | D,,6 | E,,6 | G,,6 | F,,6 | D,,6 | E,,6 | A,,,4 A,,2 | x6 | x6 | %125
 x6 | x6 | x6 | B,,6 | A,,6 | (D,,2 F,,2 A,,2) | G,,6 | B,,6 | A,,6 | =G,,6 | A,,6 | B,,6 | A,,6- | %138
 x6 | x6 | x6 | x6 | x6 | x6 | B,,6 | A,,6 | (D,,2 F,,2 A,,2) | G,,6 | B,,6 | A,,6 | =G,,6 | A,,6 | %152
 B,,6 | A,,6- | x6 | x6 | x6 | x6 | x6 | x4[K:treble] x2 | x6 | x6 | x6 | x4[K:bass] x2 | x6 | x6 | %166
 x6 | x6 | x6 | x6 | x6 | x6 | x6 | x6 | x6 | x6 | x6 | x6 | D,4 G,,2 | A,,4 x2 | x6 | x6 | x6 | %183
 x6 | x6 | x6 | x6 | x6 | x6 | x6 | x6 | x6 |][K:E][M:2/2] x8 |: x8 | x8 | x8 | x8 | x8 | x8 | x8 | %200
 x G,3- G,4- | G,8 | G,8- | G,8 | x8 | x8 | x8 | x8 | x8 | x8 | x8 | x8 | x8 | x8 | x8 | x8 | x8 | %217
 x8 | x8 | x8 | x8 | x8 | x8 | x8 | x8 |[K:treble] x8 | x8 | x8 | x2[K:bass] x6 | x8 | x8 | x8 | %232
 x8 | x8 | x8 | x8 | x8 | x8 | x8 | x8 | x8 | x8 | x8 | x8 | x8 | x8 | %246
 x[K:treble] x3[K:bass] x[K:treble] x3 |[K:bass] x[K:treble] x3[K:bass] x[K:treble] x3 | %248
[K:bass] x8 | x8 | x8 | x8 | x8 | x8 | x8 | x8 |1 x8 :|2 x8 || x8 | x8 | x8 | x8 | x8 | x8 | x8 | %265
 x8 | x8 | x8 | x8 | x8 | x8 | x6 B,,>=G,, | =G,,2 F,,2- F,,F,,=D,>F,, | %273
 A,,2 =G,,2- G,,G,,=D,>F,, | F,,2 ^E,,2- E,,E,,C,>E,, | F,,F,,A,,F,, =D,,D,,F,,D,, | %276
 ^B,,,4- B,,,B,,,^D,,B,,, | C,,C,,E,,C,, A,,,A,,,C,,A,,, | F,,,F,,,A,,,F,,, ^^F,,,F,,,^A,,,F,,, | %279
 x8 | !//-!G,,,4 G,,4 | !//-!G,,,4 G,,4 | !//-!G,,,4 G,,4 | !//-!G,,,4 G,,4 | x8 | x8 | x8 | x8 | %288
 x8 | x8 | x8 | x8 | x8 | x8 | x8 | x8 | x8 | x8 | x8 | x8 | x8 | x8 | x G,3- G,4- | G,8 | G,8- | %305
 G,8 | x8 | x8 | x8 | x8 | x8 | x8 | x8 | x8 | x8 | x8 | x8 | x8 | x8 | x8 | x8 | x8 | x8 | x8 | %324
 x8 | x8 | x8 | x8 | x8 | x8 | x8 | x8 | x8 | x8 | x8 | x8 | x8 | x8 | x8 | %339
 x[K:treble] x3[K:bass] x[K:treble] x3 |[K:bass] x[K:treble] x3[K:bass] x[K:treble] x3 | %341
[K:bass] x8 | x8 |[K:bass] x8 | x8 | x8 | x8 | x8 | x8 | x8 | x8 | x8 | x8 | x8 | x8 | x8 | x8 | %357
 x8 | x8 | x8 | x8 | x8 | x8 | x8 | x8 | x8 | x8 | x8 | x8 | [F,,,C,,F,,]8- | [F,,,C,,F,,]8 | %371
 [F,,,=D,,F,,]8- | [F,,,D,,F,,]8 | x8 | [F,,,C,,F,,]8 | x8 | [G,,,C,,G,,]8 | x8 | x8 | x41 | x8 | %381
 x8 | x8 | x8 | x8 | x8 | x8 | x8 | x4[K:treble] x4 | x4[K:bass] x4 | %390
 x4 E,/C,/G,,/E,,/ C,/G,,/E,,/G,,/ | C,,2 z2 x4 | x8 |] F,,,F,,,A,,,F,,, ^^F,,,F,,,^A,,,F,,, | x8 | %395
 [F,,F,]4 [E,,E,]4 | [D,,D,]4 [C,,C,]4 | [G,,,G,,]4 [G,,,G,,]4 | %398
 [G,,,G,,]2 [G,G]2- [G,G].[G,G].[A,A].[G,G] | x8 | x8 | x8 | x8 | x8 | x8 | x8 | x8 | x8 | x8 || %409

